!!!OTL@@DE: Bundeslied
!!!COM: Hanitsch, Georg Friedrich
!!!ODT: 1815
!!!OMD: Feierlich ernst, doch nicht zu langsam
!!!LYR: Arndt, Ernst Moritz
!!!LDT: 1815
!!!OCL: Erk, Ludwig
!!!GCO: Deutscher Liederschatz, Band 1
**kern	**kern	**kern
*staff3	*staff2	*staff1
*Ipiano	*Ipiano	*Ivox
*>[A,A,B,C,C]	*>[A,A,B,C,C]	*>[A,A,B,C,C]
*>norep[A,B,C]	*>norep[A,B,C]	*>norep[A,B,C]
*>A	*>A	*>A
*clefF4	*clefG2	*clefG2
*k[f#c#g#]	*k[f#c#g#]	*k[f#c#g#]
*A:	*A:	*A:
*met(C)	*met(C)	*met(C)
*M4/4	*M4/4	*M4/4
*MM60	*MM60	*MM60
8r	8e/L	8e/
4r	8c#/ 8a/	8a/
.	8e/ 8g#/ 8b/J	8b\
=1	=1	=1
8r	4.e/ 4.a/ 4.cc#/	4.cc#\
8AA/L	.	.
8C#/	.	.
8AA/J	8e/ 8a/ 8cc#/	8cc#\
4E\	(8b/L	(8b\L
.	8ee/J)	8ee\J)
4EE/ 4E/	8dd/L	(8dd\L
.	8b/J	8b\J)
=2	=2	=2
4AA/ 4E/	8c#/ (8a/L	(8a/L
.	8e/J)	8e/J)
4AA\ 4A\	4c#/ 4e/	4e/
4.AA/	8r	8r
.	8c#/ 8e/ 8a/L	8a/
.	8c#/ 8e/ 8a/	8a/
8AA/	8c#/ 8e/ 8g#/J	8g#/
=3	=3	=3
4BB/	4.e/ 4.f#/	4.f#/
4BB\ 4B\	.	.
.	8e/ 8f#/	8f#/
4BB\ 4B\	4d#/ 4f#/ 4b/	4b\
4BB\ 4F#\ 4A\	4B/ 4d#/ 4b/	4b\
=4	=4	=4
4E\	2G#/ 2B/ 2e/	2e/
4BB/	.	.
8EE/	8r	8r
=:|!	=:|!	=:|!
*>B	*>B	*>B
*	*^	*
8r	(8e/L	4e\	8e/
4r	8g#/J)	.	8g#/
.	8a/	8f#\	8a/
*	*v	*v	*
=5	=5	=5
8r	4.g#/ 4.b/	4.b\
4E\	.	.
8E\	8e/ 8g#/	8g#/
4E\	(8a/L	(8a\L
.	8cc#/J)	8cc#\J)
4E\	8ee/L	(8ee\L
.	8cc#/J	8cc#\J)
=6	=6	=6
(8G#/L	(8b/L	(8b/L
8B/J)	8g#/J	8g#/J)
4G#/	4e/)	4e/
8EE/	8r	8r
8r	8e/L	8e/
4r	8c#/	8c#/
.	8e/J	8e/
=7	=7	=7
8r	4.c#/ 4.e/ 4.a/	4.a/
8AA/L	.	.
8C#/	.	.
8E/J	8c#/ 8e/ 8a/	8a/
4A\	(8a/L	(8a\L
.	8cc#/J)	8cc#\J)
(8c#\L	8ee/L	(8ee\L
8A\J)	8cc#/J	8cc#\J)
=8	=8	=8
4E\	2e/ 2g#/ 2b/	2b\
4E\	.	.
8EE/	8r	8r
=!|:	=!|:	=!|:
*>C	*>C	*>C
8r	8a\ 8cc#\L	8cc#\
4r	8a\ 8cc#\	8cc#\
.	8b\ 8dd\J	8dd\
=9	=9	=9
4A\	4.cc#\ 4.ee\	4.ee\
4.AA/	.	.
.	8b\ 8dd\	8dd\
.	(8a/ 8cc#/L	(8cc#\L
8AA/L	8g#/) 8b/	8b\J)
8BB/	(8f#/ 8a/	(8a/L
8C#/J	8e/) 8g#/J	8g#/J)
=10	=10	=10
4D/	8A/ 8e/ (8g#/L	(8g#/L
.	8d/ 8f#/J	8f#/J)
4DD/	4A/ 4d/ 4f#/)	4f#/
4.D/	8r	8r
.	8f#/ 8b/ 8dd/L	8dd\
.	8d/ 8f#/ 8b/	8b\
8C#/	8e/ 8a#/ 8cc#/J	8cc#\
=11	=11	=11
4BB/	4f#/ 4b/ 4dd/	4dd\
4GG#/	4e/ 4b/ 4ee/	4ee\
8AA/L	4e/ 4a/ 4cc#/	4cc#\
8C#/J	.	.
4EE/ 4E/	4d/ 4g#/ 4b/	4b\
=12	=12	=12
2AAA/ 2AA/	2c#/ 2e/ 2a/	2a/
8r	8r	8r
==:|!	==:|!	==:|!
*-	*-	*-
!!!ENC: Craig Stuart Sapp
!!!END: 2004/06/01/
!!!EFL: 140/651
